X:188
T:Collier's Jig, The
T:Do You Want Any More?
R:jig
H:See also The Collier's Reel, reel#346
D:De Dannan: Selected Jigs and Reels
Z:id:hn-jig-188
M:6/8
K:Dmix
FDF A2B|cAd cAG|Ad^c d2e|fed ^cAG|
FDF A2B|=cAd cAG|Adc AGE|1 FDD D2E:|2 FDD D2g||
|:fdg fd^c|Add ^cde|~f3 ed^c|AB^c dfg|
afa ~g3|fgf ed^c|Ad=c AGE|1 FDD D2g:|2 FDD D2E||
P:Variations:
|:DFA A2B|cAd cAG|Ad^c deg|fdf e^cA|
FDF A2B|=cAd cAG|Adc AGE|1 FDD D2E:|2 FDD D2g||
|:fdg fd=c|Ad^c d2g|fdg fd=c|AB^c dfg|
~a3 gag|fgf e^cA|Ad=c AGE|1 FDD D2g:|2 FDD D2E||
P:More variations:
|:FDF A2B|=cAd cAG|Ad^c deg|fed =cAG|
FDF A2B|=cAd cAG|Ad^c AGE|1 ED^C D2E:|2 ED^C D2g|
|:fdg fd^c|Add ^cde|fdg fd^c|AB^c def|
~a3 g2e|fed =cAG|Ad^c AGE|1 ED^C D2g:|2 ED^C D2E|

